icons/codepen/codepen-plain.svg

<svg width="128" height="128" viewBox="0 0 128 128" fill="none" xmlns="http://www.w3.org/2000/svg">
<path d="M125.571 39.926L67.0715 0.925997C65.0744 -0.303094 62.9434 -0.314225 60.9285 0.925997L2.42867 39.926C0.928561 40.9256 0 42.712 0 44.4971V83.4971C0 85.2827 0.928561 87.0686 2.42895 88.0682L60.9288 127.074C62.9254 128.303 65.0566 128.314 67.0715 127.074L125.571 88.0682C127.071 87.0692 128 85.2827 128 83.4971V44.4971C128 42.712 127.071 40.9256 125.571 39.926ZM69.5001 15.7825L112.571 44.4971L93.3566 57.3548L69.5001 41.4259V15.7825ZM58.4999 15.7825V41.4256L34.6422 57.3545L15.4285 44.4968L58.4999 15.7825ZM10.9997 54.7828L24.7856 63.9972L10.9997 73.2117V54.7828ZM58.4999 112.212L15.4285 83.4971L34.6422 70.6399L58.4999 86.5689V112.212ZM64 76.9966L44.5715 63.9972L64 50.997L83.4285 63.997L64 76.9966ZM69.5001 112.212V86.5692L93.3566 70.6402L112.571 83.4974L69.5001 112.212ZM117 73.2117L103.214 63.9972L117 54.7828V73.2117Z" fill="black"/>
</svg>

<svg viewBox="0 0 128 128" fill="none" xmlns="http://www.w3.org/2000/svg"><path d="M125.571 39.926l-58.5-39c-1.997-1.23-4.128-1.24-6.142 0l-58.5 39C.929 40.926 0 42.712 0 44.497v39c0 1.786.929 3.572 2.429 4.571l58.5 39.006c1.996 1.229 4.128 1.24 6.142 0l58.5-39.006c1.5-.999 2.429-2.785 2.429-4.57v-39c0-1.786-.929-3.572-2.429-4.572zm-56.07-24.144l43.07 28.715-19.214 12.858L69.5 41.425V15.784zm-11.001 0v25.644L34.642 57.354 15.428 44.498 58.5 15.782zm-47.5 39l13.786 9.215L11 73.212v-18.43zm47.5 57.43L15.428 83.497 34.642 70.64 58.5 86.569v25.643zM64 76.997l-19.428-13 19.428-13 19.428 13-19.428 13zm5.5 35.215V86.569L93.357 70.64l19.214 12.857-43.07 28.715zm47.5-39l-13.786-9.215L117 54.783v18.429z" fill="#000"/></svg>
